!!!!SEGMENT: pl-wtm--r-1690--002_stefani-jozef--oj-zoneczka-no-1.krn
!!!cenid: 18xx:2308
!!!COM: Stefani, Józef
!!!COM-rismID: pe30024097
!!!CDT: 1800/04/16-1876/03/19
!!!CNT: Polish
!!!OPR: Oj żoneczka
!!!OTL: No. 1
!!!OMV: 002
!!!PDT:
!!!AGN: Secular
!!!SMS-siglum: PL-Wtm
!!!SMS-shelfmark: R 1690
!!!SMS-shelfwork: 001-002 M
!!!SMS-variant:
!!!SMS-altvar:
!!!NIFC-rismSourceID: 1001114714
!!!NIFC-rismChildID: 1001114714
!!!NIFC-islandoraID: pl-wtm:28053
!!!URL-pdf-islandora: https://repozytorium.nifc.pl/islandora/object/pl-wtm%3A28053/datastream/PDF/view
!!!URL-scan: https://polish.musicsources.pl/pl/lokalizacje/galeria/rekopisy/6430 @EN{Scan on Polish Music Sources Website} @PL{Skany w portalu Dziedzictwo Muzyki Polskiej w otwartym dostępie}
!!!ONB-nifc: UWAGA: skany 0006-0007
!!!OMD: Allegro.
!!!AIN: 1 clars 1 cor 1 empty 1 flt 1 viola 3 violn
!!!key:
**kern	**dynam	**kern	**dynam	**kern	**dynam	**kern	**dynam	**kern	**dynam	**kern	**dynam	**kern	**dynam	**kern	**text	**dynam
*part8	*part8	*part7	*part7	*part6	*part6	*part5	*part5	*part4	*part4	*part3	*part3	*part2	*part2	*part1	*part1	*part1
*staff8	*	*staff7	*	*staff6	*	*staff5	*	*staff4	*	*staff3	*	*staff2	*	*staff1	*staff1	*
*Ivioln	*	*Iviola	*	*Ivioln	*	*Ivioln	*	*Icor	*	*Iclars	*	*Iflt	*	*Iempty	*	*
*I"V:C: C:B:	*	*I"Viola	*	*I"V II	*	*I"V I	*	*I"Corni D.	*	*I"Clarinetti A.	*	*I"Flauto.	*	*I"Śpiew.	*	*
*I'vlc b	*	*I'vla	*	*I'vl 2	*	*I'vl 1	*	*I'cor in D	*	*I'cl in A	*	*I'fl	*	*I'vox humana	*	*
*clefF4	*	*clefC3	*	*clefG2	*	*clefG2	*	*clefG2	*	*clefG2	*	*clefG2	*	*clefG2	*	*
*	*	*	*	*	*	*	*	*ITrd6c10	*	*ITrd2c3	*	*	*	*	*	*
*k[f#c#]	*	*k[f#c#]	*	*k[f#c#]	*	*k[f#c#]	*	*k[f#c#]	*	*k[f#c#]	*	*k[f#c#]	*	*k[f#c#]	*	*
*D:	*	*D:	*	*D:	*	*D:	*	*D:	*	*D:	*	*D:	*	*D:	*	*
*M6/8	*	*M6/8	*	*M6/8	*	*M6/8	*	*M6/8	*	*M6/8	*	*M6/8	*	*M6/8	*	*
=1	=1	=1	=1	=1	=1	=1	=1	=1	=1	=1	=1	=1	=1	=1	=1	=1
*^	*	*	*	*	*	*	*	*	*	*	*	*	*	*	*	*
*tremolo	*tremolo	*	*tremolo	*	*tremolo	*	*	*	*	*	*	*	*	*	*	*	*
!	!	!LO:DY:b:rj	!	!LO:DY:b:rj	!	!LO:DY:b:rj	!	!LO:DY:b:rj	!	!LO:DY:b:rj	!	!LO:DY:b:rj	!	!LO:DY:b:rj	!	!	!
16D/LL	16D\LL	ff	16A/LL	ff	16ddLL 16f#\	ff	8dd\L	ff	8f#L 8d\	ff	8ddL 8a\	ff	8ddd\L	ff	2.r	.	.
16D/	16D\	.	16A/	.	16dd 16f#\	.	.	.	.	.	.	.	.	.	.	.	.
16D/	16D\	.	16A/	.	16dd 16f#\	.	16dd\L	.	8f# 8d\	.	8dd 8a\	.	16ddd\L	.	.	.	.
16D/	16D\	.	16A/	.	16dd 16f#\	.	16ff#\	.	.	.	.	.	16fff#\	.	.	.	.
16D/	16D\	.	16A/	.	16dd 16f#\	.	16ee\	.	8f#J 8d\	.	8ddJ 8a\	.	16eee\	.	.	.	.
16D/JJ	16D\JJ	.	16A/	.	16ddJJ 16f#\	.	16dd\JJ	.	.	.	.	.	16ddd\JJ	.	.	.	.
16AA/LL	16AA\LL	.	16A/	.	16cc#LL 16e\	.	8aa\L	.	8eL 8A\	.	8cc#L 8a\	.	8aaa\L	.	.	.	.
16AA/	16AA\	.	16A/	.	16cc# 16e\	.	.	.	.	.	.	.	.	.	.	.	.
16AA/	16AA\	.	16A/	.	16cc# 16e\	.	8aa\	.	8e 8A\	.	8cc# 8a\	.	8aaa\	.	.	.	.
16AA/	16AA\	.	16A/	.	16cc# 16e\	.	.	.	.	.	.	.	.	.	.	.	.
16AA/	16AA\	.	16A/	.	16cc# 16e\	.	8aa\J	.	8eJ 8A\	.	8cc#J 8a\	.	8aaa\J	.	.	.	.
16AA/JJ	16AA\JJ	.	16A/JJ	.	16cc#JJ 16e\	.	.	.	.	.	.	.	.	.	.	.	.
=2	=2	=2	=2	=2	=2	=2	=2	=2	=2	=2	=2	=2	=2	=2	=2	=2	=2
*rep	*rep	*	*rep	*	*rep	*	*rep	*	*rep	*	*rep	*	*rep	*	*	*	*
16D/LL	16D\LL	.	16A/LL	.	16ddLL 16f#\	.	8dd\L	.	8f#L 8d\	.	8ddL 8a\	.	8ddd\L	.	2.r	.	.
16D/	16D\	.	16A/	.	16dd 16f#\	.	.	.	.	.	.	.	.	.	.	.	.
16D/	16D\	.	16A/	.	16dd 16f#\	.	16dd\L	.	8f# 8d\	.	8dd 8a\	.	16ddd\L	.	.	.	.
16D/	16D\	.	16A/	.	16dd 16f#\	.	16ff#\	.	.	.	.	.	16fff#\	.	.	.	.
16D/	16D\	.	16A/	.	16dd 16f#\	.	16ee\	.	8f#J 8d\	.	8ddJ 8a\	.	16eee\	.	.	.	.
16D/JJ	16D\JJ	.	16A/	.	16ddJJ 16f#\	.	16dd\JJ	.	.	.	.	.	16ddd\JJ	.	.	.	.
16AA/LL	16AA\LL	.	16A/	.	16cc#LL 16e\	.	8aa\L	.	8eL 8A\	.	8cc#L 8a\	.	8aaa\L	.	.	.	.
16AA/	16AA\	.	16A/	.	16cc# 16e\	.	.	.	.	.	.	.	.	.	.	.	.
16AA/	16AA\	.	16A/	.	16cc# 16e\	.	8aa\	.	8e 8A\	.	8cc# 8a\	.	8aaa\	.	.	.	.
16AA/	16AA\	.	16A/	.	16cc# 16e\	.	.	.	.	.	.	.	.	.	.	.	.
16AA/	16AA\	.	16A/	.	16cc# 16e\	.	8aa\J	.	8eJ 8A\	.	8cc#J 8a\	.	8aaa\J	.	.	.	.
16AA/JJ	16AA\JJ	.	16A/JJ	.	16cc#JJ 16e\	.	.	.	.	.	.	.	.	.	.	.	.
*Xrep	*Xrep	*	*Xrep	*	*Xrep	*	*Xrep	*	*Xrep	*	*Xrep	*	*Xrep	*	*	*	*
=3	=3	=3	=3	=3	=3	=3	=3	=3	=3	=3	=3	=3	=3	=3	=3	=3	=3
16D/LL	16D\LL	.	16A/LL	.	16ddLL 16f#\	.	8dd\L	.	8f#L 8d\	.	8ddL 8a\	.	8ddd\L	.	2.r	.	.
16D/	16D\	.	16A/	.	16dd 16f#\	.	.	.	.	.	.	.	.	.	.	.	.
16D/	16D\	.	16A/	.	16dd 16f#\	.	16dd\L	.	8f# 8d\	.	8dd 8a\	.	16ddd\L	.	.	.	.
16D/	16D\	.	16A/	.	16dd 16f#\	.	16ff#\	.	.	.	.	.	16fff#\	.	.	.	.
16D/	16D\	.	16A/	.	16dd 16f#\	.	16ee\	.	8f#J 8d\	.	8ddJ 8a\	.	16eee\	.	.	.	.
16D/JJ	16D\JJ	.	16A/JJ	.	16ddJJ 16f#\	.	16dd\JJ	.	.	.	.	.	16ddd\JJ	.	.	.	.
16G/LL	16G\LL	.	16G/LL	.	16bLL 16d/	.	8b\L	.	8gL 8d\	.	8ddL 8b\	.	8bb\L	.	.	.	.
16G/	16G\	.	16G/	.	16b 16d/	.	.	.	.	.	.	.	.	.	.	.	.
16G/	16G\	.	16G/	.	16b 16d/	.	16b\L	.	8g 8d\	.	8dd 8b\	.	16bb\L	.	.	.	.
16G/	16G\	.	16G/	.	16b 16d/	.	16dd\	.	.	.	.	.	16ddd\	.	.	.	.
16G/	16G\	.	16G/	.	16b 16d/	.	16cc#\	.	8gJ 8d\	.	8ddJ 8b\	.	16ccc#\	.	.	.	.
16G/JJ	16G\JJ	.	16G/JJ	.	16bJJ 16d/	.	16b\JJ	.	.	.	.	.	16bb\JJ	.	.	.	.
=4	=4	=4	=4	=4	=4	=4	=4	=4	=4	=4	=4	=4	=4	=4	=4	=4	=4
*tremolo	*tremolo	*	*	*	*	*	*	*	*	*	*	*	*	*	*	*	*
!LO:N:vis=4.	!	!	!	!	!	!	!	!	!	!	!	!	!	!	!	!	!
16A/LL	16A\LL	.	16A/LL	.	16f#LL 16d/	.	16a/LL	.	8f#L 8d\	.	8ddL 8a\	.	16aa\LL	.	2.r	.	.
16A/	16A\	.	16A/	.	16f# 16d/	.	16b/	.	.	.	.	.	16bb\	.	.	.	.
16A/	16A\	.	16A/	.	16f# 16d/	.	16a/	.	8f# 8d\	.	8dd 8a\	.	16aa\	.	.	.	.
16A/JJ	16A\JJ	.	16A/	.	16f#JJ 16d/	.	16g/	.	.	.	.	.	16gg\	.	.	.	.
*Xtremolo	*Xtremolo	*	*	*	*Xtremolo	*	*	*	*	*	*	*	*	*	*	*	*
16AA/LL	8AA\	.	16A/	.	16eLL 16c#/	.	16f#/	.	8eJ 8A\	.	8ddJ 8a\	.	16ff#\	.	.	.	.
16AA/JJ	.	.	16A/JJ	.	16eJJ 16c#/	.	16e/JJ	.	.	.	.	.	16ee\JJ	.	.	.	.
*	*	*	*Xtremolo	*	*	*	*	*	*	*	*	*	*	*	*	*	*
4D/	4D\	.	4F#/	.	4d/	.	4d/	.	4d 4F#\	.	4dd 4a\	.	4dd\	.	.	.	.
8r	8ryy	.	8r	.	8r	.	8r	.	8r	.	8r	.	8r	.	.	.	.
*v	*v	*	*	*	*	*	*	*	*	*	*	*	*	*	*	*	*
=5||	=5||	=5||	=5||	=5||	=5||	=5||	=5||	=5||	=5||	=5||	=5||	=5||	=5||	=5||	=5||	=5||
!	!	!	!	!	!	!	!	!	!	!	!	!	!	!LO:TX:a:Bi:t=Wincenty.	!	!
!	!LO:DY:b:rj	!	!LO:DY:b:rj	!	!LO:DY:b:rj	!	!LO:DY:b:rj	!	!	!	!	!	!	!	!	!LO:DY:b:Bi:t=%s.:rj
8D\L	p	8A/L	p	8d/L	p	8f#/L	p	2.r	.	2.r	.	2.r	.	8a/	A-	p
8r	.	8r	.	8r	.	8r	.	.	.	.	.	.	.	8f#/	-by	.
8D\J	.	8B/J	.	8d/J	.	8g/J	.	.	.	.	.	.	.	8g/	się	.
8D\L	.	8A/L	.	8d/L	.	8f#/L	.	.	.	.	.	.	.	8a/L	jej	.
8r	.	8r	.	8r	.	8r	.	.	.	.	.	.	.	8b/J	.	.
8D\J	.	8A/J	.	8e/J	.	8g/J	.	.	.	.	.	.	.	8cc#/	po-	.
=6	=6	=6	=6	=6	=6	=6	=6	=6	=6	=6	=6	=6	=6	=6	=6	=6
*rep	*	*	*	*	*	*	*	*	*	*	*	*	*	*	*	*
!	!	!	!	!	!	!	!	!	!	!	!	!	!	!LO:TX:a:i:t=24.	!	!
8D\L	.	8A/L	.	8d/L	.	8f#/L	.	2.r	.	2.r	.	2.r	.	(<4dd/	-do-	.
8r	.	8r	.	8r	.	8r	.	.	.	.	.	.	.	.	.	.
8D\J	.	8B/J	.	8d/J	.	8g/J	.	.	.	.	.	.	.	8b/)	.	.
8D\L	.	8A/L	.	8d/L	.	8f#/L	.	.	.	.	.	.	.	4.a/	-bać	.
8r	.	8r	.	8r	.	8r	.	.	.	.	.	.	.	.	.	.
8D\J	.	8A/J	.	8d/J	.	8f#/J	.	.	.	.	.	.	.	.	.	.
*Xrep	*	*	*	*	*	*	*	*	*	*	*	*	*	*	*	*
=7	=7	=7	=7	=7	=7	=7	=7	=7	=7	=7	=7	=7	=7	=7	=7	=7
*rep	*	*	*	*	*	*	*	*	*	*	*	*	*	*	*	*
8D\L	.	8B/L	.	8d/L	.	8g/L	.	2.r	.	2.r	.	2.r	.	4b\	bacz-	.
8r	.	8r	.	8r	.	8r	.	.	.	.	.	.	.	.	.	.
8D\J	.	8B/J	.	8d/J	.	8g/J	.	.	.	.	.	.	.	8cc#\	-ną	.
8D\L	.	8B/L	.	8d/L	.	8g/L	.	.	.	.	.	.	.	8dd\L	mo-	.
8r	.	8r	.	8r	.	8r	.	.	.	.	.	.	.	8cc#\J	.	.
8D\J	.	8B/J	.	8d/J	.	8g/J	.	.	.	.	.	.	.	8b\	-ja	.
*Xrep	*	*	*	*	*	*	*	*	*	*	*	*	*	*	*	*
=8	=8	=8	=8	=8	=8	=8	=8	=8	=8	=8	=8	=8	=8	=8	=8	=8
8D\L	.	8A/L	.	8d/L	.	8f#/L	.	2.r	.	2.r	.	2.r	.	4.a/	du-	.
8r	.	8r	.	8r	.	8r	.	.	.	.	.	.	.	.	.	.
8D\J	.	8A/J	.	8d/J	.	8f#/J	.	.	.	.	.	.	.	.	.	.
8D\	.	8A/	.	8d/	.	8f#/	.	.	.	.	.	.	.	4f#/	-sza	.
8r	.	8r	.	8r	.	8r	.	.	.	.	.	.	.	.	.	.
!LO:TX:b:Bi:t=VS.	!	!	!	!	!	!	!	!	!	!	!	!	!	!	!	!
!	!LO:DY:b:rj	!	!LO:DY:b:rj	!	!LO:DY:b:rj	!	!LO:DY:b:rj	!	!	!	!	!	!	!	!	!LO:DY:b:rj
8d\	f	8d\	f	8dd\	f	8dd\	f	.	.	.	.	.	.	8dd\	Dwa-	f
!!LO:PB:g=original
=9	=9	=9	=9	=9	=9	=9	=9	=9	=9	=9	=9	=9	=9	=9	=9	=9
4d\	.	4d\	.	4dd\	.	4dd\	.	2.r	.	2.r	.	2.r	.	4dd\	-dzieś-	.
8D\	.	8D/	.	8d/	.	8d/	.	.	.	.	.	.	.	8d/	-cia	.
8D\L	.	8D/L	.	8d/L	.	8d/L	.	.	.	.	.	.	.	8d/	ra-	.
8D\	.	8D/	.	8d/	.	8d/	.	.	.	.	.	.	.	8d/	-zy	.
8D\J	.	8D/J	.	8d/J	.	8d/J	.	.	.	.	.	.	.	8d/	na	.
=10	=10	=10	=10	=10	=10	=10	=10	=10	=10	=10	=10	=10	=10	=10	=10	=10
8r	.	8r	.	8r	.	8r	.	2.r	.	2.r	.	2.r	.	4.b/	dzień	.
8G\L	.	8B/L	.	8d/L	.	8g/L	.	.	.	.	.	.	.	.	.	.
8G\J	.	8B/J	.	8d/J	.	8g/J	.	.	.	.	.	.	.	.	.	.
8G\L	.	8B/L	.	8d/L	.	8g/L	.	.	.	.	.	.	.	4b/	chust-	.
8r	.	8r	.	8r	.	8r	.	.	.	.	.	.	.	.	.	.
8F#\J	.	8B/J	.	8d#X/J	.	8a/J	.	.	.	.	.	.	.	8b/	-Kę	.
=11	=11	=11	=11	=11	=11	=11	=11	=11	=11	=11	=11	=11	=11	=11	=11	=11
8E\L	.	8B/L	.	8e/L	.	8g/L	.	2.r	.	2.r	.	2.r	.	(<4.b/	jej	.
8r	.	8r	.	8r	.	8r	.	.	.	.	.	.	.	.	.	.
8E\J	.	8B/J	.	8e/J	.	8g/J	.	.	.	.	.	.	.	.	.	.
8G\L	.	8B/L	.	8e/L	.	8g/L	.	.	.	.	.	.	.	8b/L	.	.
8r	.	8r	.	8r	.	8r	.	.	.	.	.	.	.	8a/J)	.	.
8G\J	.	8B/J	.	8e/J	.	8g/J	.	.	.	.	.	.	.	8g/	zdej-	.
=12	=12	=12	=12	=12	=12	=12	=12	=12	=12	=12	=12	=12	=12	=12	=12	=12
!	!	!	!	!	!	!	!	!	!	!	!	!	!	!LO:TX:a:i:t=25.	!	!
4.A\	.	8r	.	8r	.	8r	.	2.r	.	2.r	.	2.r	.	4.f#/	-mu-	.
.	.	8A/L	.	8dn/L	.	8f#/L	.	.	.	.	.	.	.	.	.	.
.	.	8A/J	.	8d/J	.	8f#/J	.	.	.	.	.	.	.	.	.	.
8AA/L	.	8A/	.	8c#/	.	8e/	.	.	.	.	.	.	.	4e/	-ję	.
8BB/	.	8r	.	8r	.	8r	.	.	.	.	.	.	.	.	.	.
8C#/J	.	8r	.	8r	.	8r	.	.	.	.	.	.	.	8r	.	.
=13	=13	=13	=13	=13	=13	=13	=13	=13	=13	=13	=13	=13	=13	=13	=13	=13
!	!LO:DY:b:rj	!	!LO:DY:b:rj	!	!LO:DY:b:rj	!	!LO:DY:b:rj	!	!	!	!	!	!	!	!	!
8D\L	p	8A/L	p	8d/L	p	8f#/L	p	2.r	.	2.r	.	2.r	.	8a/L	spie-	.
8r	.	8r	.	8r	.	8r	.	.	.	.	.	.	.	8f#/J	.	.
8D\J	.	8B/J	.	8d/J	.	8g/J	.	.	.	.	.	.	.	8g/	-wam	.
8D\L	.	8A/L	.	8d/L	.	8f#/L	.	.	.	.	.	.	.	8a/	tKli-	.
8r	.	8r	.	8r	.	8r	.	.	.	.	.	.	.	8b/	-wy	.
8D\J	.	8A/J	.	8e/J	.	8g/J	.	.	.	.	.	.	.	8cc#/	ro-	.
=14	=14	=14	=14	=14	=14	=14	=14	=14	=14	=14	=14	=14	=14	=14	=14	=14
*rep	*	*	*	*	*	*	*	*	*	*	*	*	*	*	*	*
8D\L	.	8A/L	.	8d/L	.	8f#/L	.	2.r	.	2.r	.	2.r	.	(<4dd/	-man-	.
8r	.	8r	.	8r	.	8r	.	.	.	.	.	.	.	.	.	.
8D\J	.	8B/J	.	8d/J	.	8g/J	.	.	.	.	.	.	.	8b/)	.	.
8D\L	.	8A/L	.	8d/L	.	8f#/L	.	.	.	.	.	.	.	4.a/	-siK	.
8r	.	8r	.	8r	.	8r	.	.	.	.	.	.	.	.	.	.
8D\J	.	8A/J	.	8d/J	.	8f#/J	.	.	.	.	.	.	.	.	.	.
*Xrep	*	*	*	*	*	*	*	*	*	*	*	*	*	*	*	*
=15	=15	=15	=15	=15	=15	=15	=15	=15	=15	=15	=15	=15	=15	=15	=15	=15
*rep	*	*	*	*rep	*	*	*	*	*	*	*	*	*	*	*	*
8D\L	.	8B/L	.	8d/L	.	8g/L	.	2.r	.	2.r	.	2.r	.	4b/	Któ-	.
8r	.	8r	.	8r	.	8r	.	.	.	.	.	.	.	.	.	.
8D\J	.	8B/J	.	8d/J	.	8g/J	.	.	.	.	.	.	.	8cc#/	-ry	.
8D\L	.	8B/L	.	8d/L	.	8g/L	.	.	.	.	.	.	.	8ee/L	ser-	.
8r	.	8r	.	8r	.	8r	.	.	.	.	.	.	.	8dd/J	.	.
8D\J	.	8B/J	.	8d/J	.	8g/J	.	.	.	.	.	.	.	8b/	-ce	.
*Xrep	*	*	*	*Xrep	*	*	*	*	*	*	*	*	*	*	*	*
=16	=16	=16	=16	=16	=16	=16	=16	=16	=16	=16	=16	=16	=16	=16	=16	=16
8r	.	8r	.	8r	.	8r	.	2.r	.	2.r	.	2.r	.	4.a/	wzru-	.
8D\L	.	8A/L	.	8d/L	.	8f#/L	.	.	.	.	.	.	.	.	.	.
8D\J	.	8A/J	.	8d/J	.	8f#/J	.	.	.	.	.	.	.	.	.	.
4D\	.	4A/	.	4d/	.	4.f#/	.	.	.	.	.	.	.	4f#/	-sza	.
8C#\	.	8A#X/	.	8e/	.	.	.	.	.	.	.	.	.	8f#/	z we-	.
=17	=17	=17	=17	=17	=17	=17	=17	=17	=17	=17	=17	=17	=17	=17	=17	=17
8BB/	.	8B/	.	8d/	.	8f#/	.	8r	.	2.r	.	2.r	.	4b/	-stchnie-	.
!	!	!	!	!	!	!	!	!	!LO:DY:b:rj	!	!	!	!	!	!	!
8r	.	8r	.	8r	.	8r	.	8f#L 8F#/	p	.	.	.	.	.	.	.
8r	.	8r	.	8r	.	8r	.	8f#J 8F#/	.	.	.	.	.	8f#/	-niem	.
8AA#X/	.	8c#\	.	8d/	.	8f#/	.	8r	.	.	.	.	.	4cc#/	mię	.
8r	.	8r	.	8r	.	8r	.	8f#L 8F#/	.	.	.	.	.	.	.	.
8r	.	8r	.	8r	.	8r	.	8f#J 8F#/	.	.	.	.	.	8f#/	po-	.
!!LO:LB:g=original
=18	=18	=18	=18	=18	=18	=18	=18	=18	=18	=18	=18	=18	=18	=18	=18	=18
!	!	!	!	!	!	!	!	!	!	!	!	!	!	!LO:TX:a:i:t=26.:rj	!	!
8BB/	.	8B/	.	8d/	.	8f#/	.	8r	.	2.r	.	2.r	.	4.dd\	-ra-	.
8r	.	8r	.	8r	.	8r	.	8f#L 8F#/	.	.	.	.	.	.	.	.
8r	.	8r	.	8r	.	8r	.	8f#J 8F#/	.	.	.	.	.	.	.	.
8BB/L	.	8B/L	.	8d/L	.	4.f#/	.	8f# 8F#/	.	.	.	.	.	8dd\L	-nek	.
8C#/	.	8A#X/	.	8e/	.	.	.	8r	.	.	.	.	.	8cc#\J	.	.
8D/J	.	8B/J	.	8d/J	.	.	.	8r	.	.	.	.	.	8b\	i	.
=19	=19	=19	=19	=19	=19	=19	=19	=19	=19	=19	=19	=19	=19	=19	=19	=19
8E\	.	8r	.	8r	.	8r	.	2.r	.	2.r	.	2.r	.	4.ee\	wie-	.
8r	.	8An/L	.	8c#/L	.	8e/L	.	.	.	.	.	.	.	.	.	.
8r	.	8A/J	.	8c#/J	.	8e/J	.	.	.	.	.	.	.	.	.	.
8E\	.	8r	.	8r	.	8r	.	.	.	.	.	.	.	8ee\L	-czór	.
8r	.	8B/L	.	8d/L	.	8g#X/L	.	.	.	.	.	.	.	8dd\J	.	.
8r	.	8B/J	.	8d/J	.	8g#/J	.	.	.	.	.	.	.	8b/	znaj-	.
=20	=20	=20	=20	=20	=20	=20	=20	=20	=20	=20	=20	=20	=20	=20	=20	=20
*	*	*	*	*	*	*	*	*^	*	*	*	*	*	*	*	*
8E\	.	8r	.	8r	.	8r	.	4r	4.ryy	.	2.r	.	2.r	.	4.b/	-du-	.
8r	.	8B/L	.	8d/L	.	8g#X/L	.	.	.	.	.	.	.	.	.	.	.
8r	.	8B/J	.	8d/J	.	8g#/J	.	8r	.	.	.	.	.	.	.	.	.
!	!	!	!	!	!	!	!	!	!	!LO:DY:b:rj	!	!	!	!	!	!	!
8AA/	.	8A/	.	8c#/	.	8a/	.	8e/L	8e\L	p	.	.	.	.	8a/	-je	.
8r	.	8r	.	8r	.	8r	.	8e/	8e\	.	.	.	.	.	8r	.	.
8r	.	8r	.	8r	.	8r	.	8e/J	8e\J	.	.	.	.	.	8r	.	.
=21	=21	=21	=21	=21	=21	=21	=21	=21	=21	=21	=21	=21	=21	=21	=21	=21	=21
8E\L	.	8B/L	.	8e/L	.	8g#X/L	.	4e/	4e\	.	2.r	.	2.r	.	4r	.	.
8r	.	8r	.	8r	.	8r	.	.	.	.	.	.	.	.	.	.	.
8E\J	.	8B/J	.	8e/J	.	8g#/J	.	8e/	8e\	.	.	.	.	.	8r	.	.
8E\L	.	8c#/L	.	8e/L	.	8a/L	.	8e/	8e\	.	.	.	.	.	4a/	Jem	.
8r	.	8r	.	8r	.	8r	.	8r	4ryy	.	.	.	.	.	.	.	.
8E\J	.	8c#/J	.	8e/J	.	8a/J	.	8r	.	.	.	.	.	.	8a/	pa-	.
*	*	*	*	*	*	*	*	*v	*v	*	*	*	*	*	*	*	*
=22	=22	=22	=22	=22	=22	=22	=22	=22	=22	=22	=22	=22	=22	=22	=22	=22
*rep	*	*	*	*rep	*	*	*	*	*	*	*	*	*	*	*	*
.	.	.	.	.	.	.	.	.	.	.	.	.	.	8qqcc#/	.	.
8E\L	.	8d\L	.	8e/L	.	8b/L	.	2.r	.	2.r	.	2.r	.	8b\	-stel-	.
8r	.	8r	.	8r	.	8r	.	.	.	.	.	.	.	8b\	-Ki	.
8E\J	.	8d\J	.	8e/J	.	8b/J	.	.	.	.	.	.	.	8r	.	.
8E\L	.	8d\L	.	8e/L	.	8b/L	.	.	.	.	.	.	.	8b\	by	.
8r	.	8r	.	8r	.	8r	.	.	.	.	.	.	.	8dd\	won-	.
8E\J	.	8c#\J	.	8e/J	.	8a#X/J	.	.	.	.	.	.	.	8cc#\	-nem	.
*Xrep	*	*	*	*Xrep	*	*	*	*	*	*	*	*	*	*	*	*
=23	=23	=23	=23	=23	=23	=23	=23	=23	=23	=23	=23	=23	=23	=23	=23	=23
*rep	*	*	*	*rep	*	*	*	*	*	*	*	*	*	*	*	*
8E\L	.	8d\L	.	8e/L	.	8b/L	.	2.r	.	2.r	.	2.r	.	8b\L	by-	.
8r	.	8r	.	8r	.	8r	.	.	.	.	.	.	.	8dd\J	.	.
8E\J	.	8c#\J	.	8e/J	.	8a#X/J	.	.	.	.	.	.	.	8cc#\	-ło	.
8E\L	.	8d\L	.	8e/L	.	8b/L	.	.	.	.	.	.	.	8b\L	o-	.
8r	.	8r	.	8r	.	8r	.	.	.	.	.	.	.	8dd\J	.	.
8E\J	.	8c#\J	.	8e/J	.	8a#/J	.	.	.	.	.	.	.	8cc#\	-de-	.
*Xrep	*	*	*	*Xrep	*	*	*	*	*	*	*	*	*	*	*	*
=24	=24	=24	=24	=24	=24	=24	=24	=24	=24	=24	=24	=24	=24	=24	=24	=24
!	!	!	!	!	!	!	!	!	!	!	!	!	!	!LO:TX:a:i:t=27:rj	!	!
8E\L	.	8d\L	.	8e/L	.	8b/L	.	2.r	.	2.r	.	2.r	.	8b\	-tchnie-	.
8r	.	8r	.	8r	.	8r	.	.	.	.	.	.	.	8b\	-nie	.
8E\J	.	8B\J	.	8g#X/J	.	8b/J	.	.	.	.	.	.	.	8r	.	.
8D\L	.	8d\L	.	8f#/L	.	8b/L	.	.	.	.	.	.	.	8b/	W Ka-	.
8r	.	8r	.	8r	.	8r	.	.	.	.	.	.	.	8a/	-żdy	.
8D\J	.	8d\J	.	8f#/J	.	8b/J	.	.	.	.	.	.	.	8b/	po-	.
=25	=25	=25	=25	=25	=25	=25	=25	=25	=25	=25	=25	=25	=25	=25	=25	=25
8C#/L	.	8e#X\L	.	8g#X/L	.	8cc#\L	.	2.r	.	2.r	.	2.r	.	4cc#\	-ra-	.
8r	.	8r	.	8r	.	8r	.	.	.	.	.	.	.	.	.	.
8C#/J	.	8e#\J	.	8g#/J	.	8cc#\J	.	.	.	.	.	.	.	8cc#\	-neK	.
8C#/L	.	8e#\L	.	8g#/L	.	8cc#\L	.	.	.	.	.	.	.	4cc#\	włos	.
8r	.	8r	.	8r	.	8r	.	.	.	.	.	.	.	.	.	.
8C#/J	.	8e#\J	.	8g#/J	.	8cc#\J	.	.	.	.	.	.	.	8cc#\	mój	.
=26	=26	=26	=26	=26	=26	=26	=26	=26	=26	=26	=26	=26	=26	=26	=26	=26
*rep	*	*	*	*	*	*	*	*	*	*	*	*	*	*	*	*
8C#/L	.	8e#X\L	.	8g#X/L	.	8cc#\L	.	2.r	.	2.r	.	2.r	.	(>4.cc#\	zrę-	.
8r	.	8r	.	8r	.	8r	.	.	.	.	.	.	.	.	.	.
8C#/J	.	8e#\J	.	8g#/J	.	8cc#\J	.	.	.	.	.	.	.	.	.	.
8C#/L	.	8e#\L	.	8g#/L	.	8cc#\L	.	.	.	.	.	.	.	8cc#\L	.	.
8r	.	8r	.	8r	.	8r	.	.	.	.	.	.	.	8b\J)	.	.
8C#/J	.	8B\J	.	8e#X/J	.	8g#X\J	.	.	.	.	.	.	.	8g#X/	-cznie	.
*Xrep	*	*	*	*	*	*	*	*	*	*	*	*	*	*	*	*
!!LO:PB:g=original
=27	=27	=27	=27	=27	=27	=27	=27	=27	=27	=27	=27	=27	=27	=27	=27	=27
[<2.FF#/	.	4.A/	.	4.f#/	.	4.f#/	.	2.r	.	2.r	.	2.r	.	4.f#tt>/	fri-	.
.	.	4.B/	.	4.e#X/	.	4.g#X/	.	.	.	.	.	.	.	(<4g#Xtt>/	-zo-	.
.	.	.	.	.	.	.	.	.	.	.	.	.	.	16f#/LL	.	.
.	.	.	.	.	.	.	.	.	.	.	.	.	.	16g#/JJ)	.	.
=28	=28	=28	=28	=28	=28	=28	=28	=28	=28	=28	=28	=28	=28	=28	=28	=28
4.FF#/]	.	[<4.A/	.	[<4.f#/	.	2.a/	.	2.r	.	2.r	.	2.r	.	4.a/	-wa-	.
4F#\	.	4A/]	.	4f#/]	.	.	.	.	.	.	.	.	.	4a/	-ny	.
8E\	.	8c#/	.	8g/	.	.	.	.	.	.	.	.	.	8r	.	.
=29	=29	=29	=29	=29	=29	=29	=29	=29	=29	=29	=29	=29	=29	=29	=29	=29
8D\L	.	8A/L	.	8d/L	.	8f#/L	.	2.r	.	2.r	.	2.r	.	8a/	z resz-	.
8r	.	8r	.	8r	.	8r	.	.	.	.	.	.	.	8f#/	-tą	.
8D\J	.	8B/J	.	8d/J	.	8g/J	.	.	.	.	.	.	.	8g/	trzy	.
8D\L	.	8A/L	.	8d/L	.	8f#/L	.	.	.	.	.	.	.	8a/L	ra-	.
8r	.	8r	.	8r	.	8r	.	.	.	.	.	.	.	8b/J	.	.
8D\J	.	8A/J	.	8e/J	.	8g/J	.	.	.	.	.	.	.	8cc#/	-zy	.
=30	=30	=30	=30	=30	=30	=30	=30	=30	=30	=30	=30	=30	=30	=30	=30	=30
*rep	*	*	*	*	*	*	*	*	*	*	*	*	*	*	*	*
!	!	!	!	!	!	!	!	!	!	!	!	!	!	!LO:TX:a:i:t=28.:rj	!	!
8D\L	.	8A/L	.	8d/L	.	8f#/L	.	2.r	.	2.r	.	2.r	.	(>4dd\	w ty-	.
8r	.	8r	.	8r	.	8r	.	.	.	.	.	.	.	.	.	.
8D\J	.	8B/J	.	8d/J	.	8g/J	.	.	.	.	.	.	.	8b\)	.	.
8D\L	.	8A/L	.	8d/L	.	8f#/L	.	.	.	.	.	.	.	4a/	-dzień	.
8r	.	8r	.	8r	.	8r	.	.	.	.	.	.	.	.	.	.
8D\J	.	8A/J	.	8d/J	.	8f#/J	.	.	.	.	.	.	.	8a/	bie-	.
*Xrep	*	*	*	*	*	*	*	*	*	*	*	*	*	*	*	*
=31	=31	=31	=31	=31	=31	=31	=31	=31	=31	=31	=31	=31	=31	=31	=31	=31
*rep	*	*	*	*rep	*	*	*	*	*	*	*	*	*	*	*	*
8D\L	.	8B/L	.	8d/L	.	8g/L	.	2.r	.	2.r	.	2.r	.	(>4b\	-li-	.
8r	.	8r	.	8r	.	8r	.	.	.	.	.	.	.	.	.	.
8D\J	.	8B/J	.	8d/J	.	8g/J	.	.	.	.	.	.	.	8cc#\)	.	.
8D\L	.	8B/L	.	8d/L	.	8g/L	.	.	.	.	.	.	.	8ee\L	-znę	.
8r	.	8r	.	8r	.	8r	.	.	.	.	.	.	.	8dd\J	.	.
8D\J	.	8B/J	.	8d/J	.	8g/J	.	.	.	.	.	.	.	8b\	o-	.
*Xrep	*	*	*	*Xrep	*	*	*	*	*	*	*	*	*	*	*	*
=32	=32	=32	=32	=32	=32	=32	=32	=32	=32	=32	=32	=32	=32	=32	=32	=32
8r	.	8r	.	8r	.	8r	.	2.r	.	2.r	.	2.r	.	4.a/	-dmie-	.
8D\L	.	8A/L	.	8d/L	.	8f#/L	.	.	.	.	.	.	.	.	.	.
8D\J	.	8A/J	.	8d/J	.	8f#/J	.	.	.	.	.	.	.	.	.	.
8D\	.	8A/	.	8d/	.	8f#/	.	.	.	.	.	.	.	4f#/	-nię	.
8r	.	8r	.	8r	.	8r	.	.	.	.	.	.	.	.	.	.
!	!LO:DY:b:rj	!	!LO:DY:b:rj	!	!LO:DY:b:rj	!	!LO:DY:b:rj	!	!	!	!	!	!	!	!	!LO:DY:b:rj
8d\	f	8d\	f	8dd\	f	8dd\	f	.	.	.	.	.	.	8dd\	Czyż	f
=33	=33	=33	=33	=33	=33	=33	=33	=33	=33	=33	=33	=33	=33	=33	=33	=33
4d\	.	4d\	.	4dd\	.	4dd\	.	2.r	.	2.r	.	2.r	.	4dd\	to	.
8D\	.	8D/	.	8d/	.	8d/	.	.	.	.	.	.	.	8d/	nie	.
4D\	.	4D/	.	4d/	.	4d/	.	.	.	.	.	.	.	4d/	jest	.
8D\	.	8D/	.	8d/	.	8d/	.	.	.	.	.	.	.	8d/	do-	.
=34	=34	=34	=34	=34	=34	=34	=34	=34	=34	=34	=34	=34	=34	=34	=34	=34
8r	.	8r	.	8r	.	8r	.	2.r	.	2.r	.	2.r	.	4.b/	-wo-	.
8G\L	.	8B/L	.	8d/L	.	8g/L	.	.	.	.	.	.	.	.	.	.
8G\J	.	8B/J	.	8d/J	.	8g/J	.	.	.	.	.	.	.	.	.	.
8G\L	.	8B/L	.	8d/L	.	8g/L	.	.	.	.	.	.	.	4g/	-dem	.
8r	.	8r	.	8r	.	8r	.	.	.	.	.	.	.	.	.	.
8E\J	.	8B/J	.	8e/J	.	8g/J	.	.	.	.	.	.	.	8b/	żem	.
=35	=35	=35	=35	=35	=35	=35	=35	=35	=35	=35	=35	=35	=35	=35	=35	=35
8A\L	.	8A/L	.	8d/L	.	8f#/L	.	2.r	.	2.r	.	2.r	.	[<4.a/	w niej	.
8r	.	8r	.	8r	.	8r	.	.	.	.	.	.	.	.	.	.
8A\J	.	8A/J	.	8d/J	.	8f#/J	.	.	.	.	.	.	.	.	.	.
8AA/L	.	8A/L	.	8c#/L	.	8e/L	.	.	.	.	.	.	.	8a/]	.	.
8r	.	8r	.	8r	.	8r	.	.	.	.	.	.	.	8g/	za-	.
8AA/J	.	8A/J	.	8c#/J	.	8e/J	.	.	.	.	.	.	.	8e/	-Ko-	.
=36	=36	=36	=36	=36	=36	=36	=36	=36	=36	=36	=36	=36	=36	=36	=36	=36
!	!	!	!	!	!	!	!	!	!	!	!	!	!	!LO:TX:a:i:t=29:rj	!	!
.	.	.	.	.	.	.	.	.	.	.	.	.	.	8qqg/	.	.
8r	.	8r	.	8r	.	8r	.	4r	.	4r	.	4r	.	4.f#/	-cha-	.
8D\L	.	8A/L	.	8d/L	.	8f#/L	.	.	.	.	.	.	.	.	.	.
8D\J	.	8A/J	.	8d/J	.	8f#/J	.	8r	.	8r	.	8r	.	.	.	.
!!LO:LB:g=original
8D\	.	8A/	.	8d/	.	8f#/	.	4r	.	4r	.	4r	.	4f#/	-ny	.
8r	.	8r	.	8r	.	8r	.	.	.	.	.	.	.	.	.	.
8d\	.	8d\	.	8dd\	.	8dd\	.	8r	.	8r	.	8r	.	8dd\	Czyż	.
=37	=37	=37	=37	=37	=37	=37	=37	=37	=37	=37	=37	=37	=37	=37	=37	=37
4d\	.	4d\	.	4dd\	.	4dd\	.	2.r	.	2.r	.	2.r	.	4dd\	To	.
8D/	.	8D/	.	8d/	.	8d/	.	.	.	.	.	.	.	8d/	nie	.
4D/	.	4D/	.	4d/	.	4d/	.	.	.	.	.	.	.	4d/	jest	.
8D/	.	8D/	.	8d/	.	8d/	.	.	.	.	.	.	.	8d/	do-	.
=38	=38	=38	=38	=38	=38	=38	=38	=38	=38	=38	=38	=38	=38	=38	=38	=38
4.G;>\	.	4.B;>/	.	4.d;>/	.	4.g;>/	.	2.r;>	.	2.r;>	.	2.r;>	.	4.b;>/	-wo-	.
.	.	.	.	.	.	.	.	.	.	.	.	.	.	(<16qqdd/LL	.	.
.	.	.	.	.	.	.	.	.	.	.	.	.	.	16qqb/JJ	.	.
8G\L	.	8B/L	.	8d/L	.	8g/	.	.	.	.	.	.	.	4g/)	-dem	.
8r	.	8r	.	8r	.	8r	.	.	.	.	.	.	.	.	.	.
8G\J	.	8B/J	.	8d/J	.	8g/	.	.	.	.	.	.	.	8b/	żem	.
=39	=39	=39	=39	=39	=39	=39	=39	=39	=39	=39	=39	=39	=39	=39	=39	=39
8A\L	.	8A/L	.	8d/L	.	8f#/L	.	2.r	.	2.r	.	2.r	.	4.a/	w niéj	.
8r	.	8r	.	8rg	.	8r	.	.	.	.	.	.	.	.	.	.
8A\J	.	8A/J	.	8d/J	.	8f#/J	.	.	.	.	.	.	.	.	.	.
8AA/L	.	8A/L	.	8c#/L	.	8e/L	.	.	.	.	.	.	.	8a/L	za-	.
8r	.	8r	.	8r	.	8r	.	.	.	.	.	.	.	8g/J	.	.
8AA/J	.	8G/J	.	8c#/J	.	8e/J	.	.	.	.	.	.	.	8e/	-Ko-	.
=40	=40	=40	=40	=40	=40	=40	=40	=40	=40	=40	=40	=40	=40	=40	=40	=40
*	*	*	*	*	*	*	*	*	*	*^	*	*	*	*	*	*
8D\L	.	8F#/L	.	8d/L	.	8d/L	.	4r	.	4r	2ryy	.	4r	.	4.d/	-cha-	.
8r	.	8r	.	8rg	.	8r	.	.	.	.	.	.	.	.	.	.	.
8D\J	.	8F#/J	.	8d/J	.	8d/J	.	8r	.	8r	.	.	8r	.	.	.	.
!	!	!LO:TX:t=P:problem=mixed beam	!	!	!	!	!	!	!	!	!	!	!	!	!	!	!
!	!LO:DY:b:rj	!	!LO:DY:b:rj	!	!LO:DY:b:rj	!	!LO:DY:b:rj	!	!	!	!	!	!	!	!	!	!
8D\L	ff	8F#/L	ff	8d/L	ff	8d/L	ff	8r	.	8r	.	.	8r	.	4d/	-ny.	.
!	!	!	!	!	!	!	!	!	!LO:DY:b:rj	!	!	!LO:DY:b:rj	!	!LO:DY:b:rj	!	!	!
8D\	.	8d\	.	8d/	.	8d/	.	8dL 8D/	ff	8dd/L	8dd\L	ff	8dd\L	ff	.	.	.
8F#\J	.	8f#\J	.	8f#/J	.	8f#/J	.	8f#J 8F#/	.	8ff#/J	8ff#\J	.	8ff#\J	.	8r	.	.
*	*	*	*	*	*	*	*	*	*	*v	*v	*	*	*	*	*	*
=41	=41	=41	=41	=41	=41	=41	=41	=41	=41	=41	=41	=41	=41	=41	=41	=41
*^	*	*	*	*	*	*	*	*	*	*	*	*	*	*	*	*
*tremolo	*tremolo	*	*tremolo	*	*tremolo	*	*	*	*	*	*	*	*	*	*	*	*
!	!	!	!	!	!	!	!	!	!	!	!	!	!	!	!LO:TX:a:i:t=30.:rj	!	!
16AA/LL	16AA\LL	.	16eLL 16c#\	.	16gLL 16A/	.	8a/L	.	8eL 8A/	.	8ggL 8cc#\	.	8aa\L	.	2.r	.	.
16AA/	16AA\	.	16e 16c#\	.	16g 16A/	.	.	.	.	.	.	.	.	.	.	.	.
16AA/	16AA\	.	16e 16c#\	.	16g 16A/	.	(<16a/L	.	8e 8A/	.	8gg 8cc#\	.	(>16aa\L	.	.	.	.
16AA/	16AA\	.	16e 16c#\	.	16g 16A/	.	16b/	.	.	.	.	.	16bb\	.	.	.	.
16AA/	16AA\	.	16e 16c#\	.	16g 16A/	.	16cc#/	.	8eJ 8A/	.	8ggJ 8cc#\	.	16ccc#\	.	.	.	.
16AA/JJ	16AA\JJ	.	16eJJ 16c#\	.	16gJJ 16A/	.	16a/JJ)	.	.	.	.	.	16aa\JJ)	.	.	.	.
16D/LL	16D\LL	.	16d\LL	.	16f#LL 16A/	.	8dd/L	.	8f#L 8A/	.	8ff#L 8dd\	.	8ddd\L	.	.	.	.
16D/	16D\	.	16d\	.	16f# 16A/	.	.	.	.	.	.	.	.	.	.	.	.
16D/	16D\	.	16d\	.	16f# 16A/	.	8a/	.	8f# 8A/	.	8ff# 8dd\	.	8aa\	.	.	.	.
16D/	16D\	.	16d\	.	16f# 16A/	.	.	.	.	.	.	.	.	.	.	.	.
16D/	16D\	.	16d\	.	16f# 16A/	.	8a/J	.	8f#J 8A/	.	8ff#J 8dd\	.	8aa\J	.	.	.	.
16D/JJ	16D\JJ	.	16d\JJ	.	16f#JJ 16A/	.	.	.	.	.	.	.	.	.	.	.	.
=42	=42	=42	=42	=42	=42	=42	=42	=42	=42	=42	=42	=42	=42	=42	=42	=42	=42
*rep	*rep	*	*rep	*	*rep	*	*	*	*rep	*	*	*	*	*	*	*	*
16AA/LL	16AA\LL	.	16eLL 16c#\	.	16gLL 16A/	.	8a/L	.	8eL 8A/	.	8ggL 8cc#\	.	8aa\L	.	2.r	.	.
16AA/	16AA\	.	16e 16c#\	.	16g 16A/	.	.	.	.	.	.	.	.	.	.	.	.
16AA/	16AA\	.	16e 16c#\	.	16g 16A/	.	(<16a/L	.	8e 8A/	.	8gg 8cc#\	.	(>16aa\L	.	.	.	.
16AA/	16AA\	.	16e 16c#\	.	16g 16A/	.	16b/	.	.	.	.	.	16bb\	.	.	.	.
16AA/	16AA\	.	16e 16c#\	.	16g 16A/	.	16cc#/	.	8eJ 8A/	.	8ggJ 8cc#\	.	16ccc#\	.	.	.	.
16AA/JJ	16AA\JJ	.	16eJJ 16c#\	.	16gJJ 16A/	.	16a/JJ)	.	.	.	.	.	16aa\JJ)	.	.	.	.
16D/LL	16D\LL	.	16d\LL	.	16f#LL 16A/	.	8dd\L	.	8f#L 8A/	.	8ff#L 8dd\	.	8ddd\L	.	.	.	.
16D/	16D\	.	16d\	.	16f# 16A/	.	.	.	.	.	.	.	.	.	.	.	.
16D/	16D\	.	16d\	.	16f# 16A/	.	8ff#\	.	8f# 8A/	.	8ff# 8dd\	.	8fff#\	.	.	.	.
16D/	16D\	.	16d\	.	16f# 16A/	.	.	.	.	.	.	.	.	.	.	.	.
16D/	16D\	.	16d\	.	16f# 16A/	.	8ff#\J	.	8f#J 8A/	.	8ff#J 8dd\	.	8fff#\J	.	.	.	.
16D/JJ	16D\JJ	.	16d\JJ	.	16f#JJ 16A/	.	.	.	.	.	.	.	.	.	.	.	.
*Xrep	*Xrep	*	*Xrep	*	*Xrep	*	*	*	*Xrep	*	*	*	*	*	*	*	*
=43	=43	=43	=43	=43	=43	=43	=43	=43	=43	=43	=43	=43	=43	=43	=43	=43	=43
*tremolo	*tremolo	*	*	*	*	*	*	*	*	*	*	*	*	*	*	*	*
16GG/LL	16GG\LL	.	16e\LL	.	16gLL 16B/	.	8ee\L	.	8gL 8e\	.	8eeL 8b\	.	8eee\L	.	2.r	.	.
16GG/	16GG\	.	16e\	.	16g 16B/	.	.	.	.	.	.	.	.	.	.	.	.
16GG/	16GG\	.	16e\	.	16g 16B/	.	(>16ee\L	.	8g 8e\	.	8ee 8b\	.	(>16eee\L	.	.	.	.
16GG/	16GG\	.	16e\	.	16g 16B/	.	16ff#\	.	.	.	.	.	16fff#\	.	.	.	.
16GG/	16GG\	.	16e\	.	16g 16B/	.	16gg\	.	8gJ 8e\	.	8eeJ 8b\	.	16ggg\	.	.	.	.
16GG/JJ	16GG\JJ	.	16e\JJ	.	16gJJ 16B/	.	16ee\JJ)	.	.	.	.	.	16eee\JJ)	.	.	.	.
16AA/LL	16AA\LL	.	16eLL 16c#\	.	16gLL 16A/	.	16dd\LL	.	8eL 8A\	.	8eeL 8cc#\	.	16ddd\LL	.	.	.	.
16AA/	16AA\	.	16e 16c#\	.	16g 16A/	.	(>16cc#\	.	.	.	.	.	(>16ccc#\	.	.	.	.
16AA/	16AA\	.	16e 16c#\	.	16g 16A/	.	16b\	.	8e 8A\	.	8ee 8cc#\	.	16bb\	.	.	.	.
16AA/	16AA\	.	16e 16c#\	.	16g 16A/	.	16a\	.	.	.	.	.	16aa\	.	.	.	.
16AA/	16AA\	.	16e 16c#\	.	16g 16A/	.	16b\)	.	8eJ 8A\	.	8eeJ 8cc#\	.	16bb\)	.	.	.	.
16AA/JJ	16AA\JJ	.	16eJJ 16c#\	.	16gJJ 16A/	.	16cc#\JJ	.	.	.	.	.	16ccc#\JJ	.	.	.	.
*Xtremolo	*Xtremolo	*	*Xtremolo	*	*Xtremolo	*	*	*	*	*	*	*	*	*	*	*	*
=44	=44	=44	=44	=44	=44	=44	=44	=44	=44	=44	=44	=44	=44	=44	=44	=44	=44
!	!	!	!	!	!	!	!	!	!	!	!	!	!	!	!LO:TX:a:i:t=31.:problem=nad końcową kreską taktową	!	!
8D/L	8D\L	.	8d\L	.	8f#L 8A/	.	8ddL 8f#\	.	8dL 8D/	.	8ff#L 8dd\	.	8ddd\L	.	2.r	.	.
8A/	8A\	.	8d 8F#\	.	8f# 8A/	.	8dd 8f#\	.	8a 8A/	.	8ff# 8dd\	.	8ddd\	.	.	.	.
8F#/J	8F#\J	.	8dJ 8F#\	.	8f#J 8A/	.	8ddJ 8f#\	.	8f#J 8F#/	.	8ff#J 8dd\	.	8ddd\J	.	.	.	.
4D/	4D\	.	4d 4F#\	.	4f# 4A/	.	4dd 4f#\	.	4d 4D/	.	4ff# 4dd\	.	4ddd\	.	.	.	.
!LO:TX:b:Bi:t=VS No2.	!	!	!	!	!	!	!	!	!	!	!	!	!	!	!	!	!
8r	8ryy	.	8r	.	8r	.	8r	.	8r	.	8r	.	8r	.	.	.	.
*v	*v	*	*	*	*	*	*	*	*	*	*	*	*	*	*	*	*
==	==	==	==	==	==	==	==	==	==	==	==	==	==	==	==	==
*-	*-	*-	*-	*-	*-	*-	*-	*-	*-	*-	*-	*-	*-	*-	*-	*-
!!!system-decoration: [(s1,s2,s3,s4,s5,s6,s7,s8)]
!!!RDF**kern: > = above
!!!RDF**kern: < = below
!!!RDF**kern: | = vertical stroke
!!!RDF**kern: N = linked
!!!RDF**kern: i = editorial accidental
!!!EED: Wojciech Jakubiak-Danek
!!!EEV: 2021-06-09
!!!ENC: Tomasz Grochalski
!!!END: 2021-06-02
!!!YEC: Copyright 2022 Narodowy Instytut Fryderyka Chopina (https://polishscores.org)
!!!YEM: License CC-BY-4.0 (https://creativecommons.org/licenses/by/4.0)
